img/icons/this/catalog/like.svg

<svg width="26" height="25" viewBox="0 0 26 25" fill="none" xmlns="http://www.w3.org/2000/svg">
<path d="M13.1919 4.58007L12.0715 3.35174C9.44175 0.468413 4.61973 1.46341 2.87905 5.0884C2.06184 6.79339 1.87746 9.25505 3.36969 12.3967C4.80724 15.4217 7.79795 19.045 13.1919 22.9917C18.5858 19.045 21.5749 15.4217 23.014 12.3967C24.5063 9.25338 24.3235 6.79339 23.5047 5.0884C21.764 1.46341 16.942 0.466746 14.3122 3.35007L13.1919 4.58007ZM13.1919 25C-10.7667 8.11339 5.81508 -5.06657 12.9169 1.90507C13.0106 1.99674 13.1028 2.09174 13.1919 2.19007C13.28 2.09183 13.3718 1.99731 13.4669 1.90674C20.5671 -5.0699 37.1504 8.11172 13.1919 25Z" fill="#D2D2D2"/>
</svg>

<svg width="26" height="25" fill="none" xmlns="http://www.w3.org/2000/svg"><path d="M13.192 4.58l-1.12-1.228C9.442.468 4.62 1.463 2.879 5.088c-.817 1.705-1.002 4.167.49 7.309 1.438 3.025 4.429 6.648 9.823 10.595 5.394-3.947 8.383-7.57 9.822-10.595 1.492-3.144 1.31-5.604.49-7.309-1.74-3.625-6.562-4.621-9.192-1.738l-1.12 1.23zm0 20.42C-10.767 8.113 5.815-5.067 12.917 1.905c.094.092.186.187.275.285a4.9 4.9 0 01.275-.283C20.567-5.07 37.15 8.112 13.192 25z" fill="#D2D2D2"/></svg>
